X: 3271
T: Mavilim
O: Turkey
F: https://www.youtube.com/watch?v=pYwJnpRCpRU
M: 4/4
L: 1/8
K: Bm
Q: 1/4= 180
%%MIDI program 111
EFFF Fz3 |EFFF FzFz|EFFF Fz3|EFFF FzFz |
EFDF EzAz|E2E2E2DC |B,8     |A,DCD E2DC|B,8||




